papirus/16x16/mimetypes/audio-x-generic.svg

<?xml version="1.0" encoding="UTF-8" standalone="no"?>
<svg
   xmlns:dc="http://purl.org/dc/elements/1.1/"
   xmlns:cc="http://creativecommons.org/ns#"
   xmlns:rdf="http://www.w3.org/1999/02/22-rdf-syntax-ns#"
   xmlns:svg="http://www.w3.org/2000/svg"
   xmlns="http://www.w3.org/2000/svg"
   xmlns:sodipodi="http://sodipodi.sourceforge.net/DTD/sodipodi-0.dtd"
   xmlns:inkscape="http://www.inkscape.org/namespaces/inkscape"
   id="svg2"
   height="16px"
   width="16px"
   version="1.1"
   viewBox="0 0 16 16"
   inkscape:version="0.91 r"
   sodipodi:docname="audio-x-generic.svg">
  <defs
     id="defs11" />
  <sodipodi:namedview
     pagecolor="#ffffff"
     bordercolor="#666666"
     borderopacity="1"
     objecttolerance="10"
     gridtolerance="10"
     guidetolerance="10"
     inkscape:pageopacity="0"
     inkscape:pageshadow="2"
     inkscape:window-width="1535"
     inkscape:window-height="876"
     id="namedview9"
     showgrid="false"
     inkscape:zoom="14.75"
     inkscape:cx="-3.9322034"
     inkscape:cy="8"
     inkscape:window-x="65"
     inkscape:window-y="24"
     inkscape:window-maximized="1"
     inkscape:current-layer="svg2" />
  <metadata
     id="metadata17">
    <rdf:RDF>
      <cc:Work
         rdf:about="">
        <dc:format>image/svg+xml</dc:format>
        <dc:type
           rdf:resource="http://purl.org/dc/dcmitype/StillImage" />
      </cc:Work>
    </rdf:RDF>
  </metadata>
  <path
     style="fill:#8563c2"
     inkscape:connector-curvature="0"
     d="M 2.75,1 C 2.33276,1 2,1.33276 2,1.75 l 0,13.5 C 2,15.667192 2.332808,16 2.75,16 l 10.5,0 C 13.6676,16 14,15.6676 14,15.25 L 14,5.5 9.875,5.125 9.5,1 Z"
     id="path5" />
  <path
     style="fill:#c2b0de"
     inkscape:connector-curvature="0"
     d="m 9.5,1 0,3.75 c 0,0.41256 0.33744,0.75 0.75,0.75 l 3.75,0 z"
     id="path7" />
  <path
     style="fill:#ffffff"
     inkscape:connector-curvature="0"
     d="m 6.0416326,7.0002333 0,4.2063467 C 5.8594023,11.123748 5.6588557,11.082915 5.458309,11.082915 4.6516775,11.082915 4,11.734593 4,12.541224 c 0,0.806632 0.6516775,1.458309 1.458309,1.458309 0.7929585,0 1.4446593,-0.638016 1.4583091,-1.431009 l 0,-3.8184365 3.2082799,0 0,2.4557925 c -0.18223,-0.08166 -0.382777,-0.122498 -0.5833237,-0.122498 -0.8066315,0 -1.458309,0.651677 -1.458309,1.458309 0,0.806632 0.6516775,1.458309 1.458309,1.458309 0.7747237,0 1.4172427,-0.61067 1.4537587,-1.385394 l 0.0047,-0.0082 0,-5.60574 z"
     id="path9" />
  <path
     style="fill:#ffffff;fill-opacity:0.10196001"
     inkscape:connector-curvature="0"
     d="M 2.75,1 C 2.33276,1 2,1.33276 2,1.75 l 0,0.6 C 2,1.93276 2.33276,1.6 2.75,1.6 l 6.75,0 0,-0.6 z"
     id="path11" />
  <path
     id="path4143"
     d="m 6.0416326,7.0002333 0,4.2063467 C 5.8594023,11.123748 5.6588557,11.082915 5.458309,11.082915 4.6516775,11.082915 4,11.734593 4,12.541224 c 0,0.806632 0.6516775,1.458309 1.458309,1.458309 0.7929585,0 1.4446593,-0.638016 1.4583091,-1.431009 l 0,-3.8184365 3.2082799,0 0,2.4557925 c -0.18223,-0.08166 -0.382777,-0.122498 -0.5833237,-0.122498 -0.8066315,0 -1.458309,0.651677 -1.458309,1.458309 0,0.806632 0.6516775,1.458309 1.458309,1.458309 0.7747237,0 1.4172427,-0.61067 1.4537587,-1.385394 l 0.0047,-0.0082 0,-5.60574 z"
     inkscape:connector-curvature="0"
     style="fill:#ffffff" />
</svg>

<?xml version="1.0" encoding="UTF-8" standalone="no"?>
<svg id="svg2" xmlns:rdf="http://www.w3.org/1999/02/22-rdf-syntax-ns#" xmlns="http://www.w3.org/2000/svg" height="16px" width="16px" version="1.1" xmlns:cc="http://creativecommons.org/ns#" viewBox="0 0 16 16" xmlns:dc="http://purl.org/dc/elements/1.1/">
 <metadata id="metadata17">
  <rdf:RDF>
   <cc:Work rdf:about="">
    <dc:format>image/svg+xml</dc:format>
    <dc:type rdf:resource="http://purl.org/dc/dcmitype/StillImage"/>
   </cc:Work>
  </rdf:RDF>
 </metadata>
 <path id="path5" fill="#8563c2" d="m2.75 1c-0.4172 0-0.75 0.3328-0.75 0.75v13.5c0 0.417 0.3328 0.75 0.75 0.75h10.5c0.418 0 0.75-0.332 0.75-0.75v-9.75l-4.125-0.375-0.375-4.125z"/>
 <path id="path7" fill="#c2b0de" d="m9.5 1v3.75c0 0.41256 0.33744 0.75 0.75 0.75h3.75z"/>
 <path id="path9" fill="#fff" d="m6.0416 7.0002v4.2063c-0.1822-0.082-0.3827-0.123-0.5833-0.123-0.8066 0-1.4583 0.652-1.4583 1.458 0 0.80663 0.65168 1.4583 1.4583 1.4583 0.79296 0 1.4447-0.63802 1.4583-1.431v-3.8184h3.2083v2.4558c-0.18223-0.08166-0.38278-0.1225-0.58332-0.1225-0.80663 0-1.4583 0.65168-1.4583 1.4583 0 0.80663 0.65168 1.4583 1.4583 1.4583 0.77472 0 1.4172-0.61067 1.4538-1.3854l0.0047-0.0082v-5.6057z"/>
 <path id="path11" fill-opacity=".10196" fill="#fff" d="m2.75 1c-0.4172 0-0.75 0.3328-0.75 0.75v0.6c0-0.4172 0.3328-0.75 0.75-0.75h6.75v-0.6z"/>
 <path id="path4143" fill="#fff" d="m6.0416 7.0002v4.2063c-0.1822-0.082-0.3827-0.123-0.5833-0.123-0.8066 0-1.4583 0.652-1.4583 1.458 0 0.80663 0.65168 1.4583 1.4583 1.4583 0.79296 0 1.4447-0.63802 1.4583-1.431v-3.8184h3.2083v2.4558c-0.18223-0.08166-0.38278-0.1225-0.58332-0.1225-0.80663 0-1.4583 0.65168-1.4583 1.4583 0 0.80663 0.65168 1.4583 1.4583 1.4583 0.77472 0 1.4172-0.61067 1.4538-1.3854l0.0047-0.0082v-5.6057z"/>
</svg>
